svgs/duotone/toolbox.svg

<svg xmlns="http://www.w3.org/2000/svg" viewBox="0 0 512 512"><!--! Font Awesome Pro 6.6.0 by @fontawesome - https://fontawesome.com License - https://fontawesome.com/license (Commercial License) Copyright 2024 Fonticons, Inc. --><defs><style>.fa-secondary{opacity:.4}</style></defs><path class="fa-secondary" d="M0 320l128 0 0 32c0 17.7 14.3 32 32 32s32-14.3 32-32l0-32 128 0 0 32c0 17.7 14.3 32 32 32s32-14.3 32-32l0-32 128 0 0 96c0 35.3-28.7 64-64 64L64 480c-35.3 0-64-28.7-64-64l0-96zM128 88c0-30.9 25.1-56 56-56l144 0c30.9 0 56 25.1 56 56l0 40-48 0 0-40c0-4.4-3.6-8-8-8L184 80c-4.4 0-8 3.6-8 8l0 40-48 0 0-40z"/><path class="fa-primary" d="M0 320l0-85.5c0-17 6.7-33.3 18.7-45.3l42.5-42.5c12-12 28.3-18.7 45.3-18.7l299 0c17 0 33.3 6.7 45.3 18.7l42.5 42.5c12 12 18.7 28.3 18.7 45.3l0 85.5-128 0 0-32c0-17.7-14.3-32-32-32s-32 14.3-32 32l0 32-128 0 0-32c0-17.7-14.3-32-32-32s-32 14.3-32 32l0 32L0 320z"/></svg>

<svg xmlns="http://www.w3.org/2000/svg" viewBox="0 0 512 512"><!--! Font Awesome Pro 6.4.0 by @fontawesome - https://fontawesome.com License - https://fontawesome.com/license (Commercial License) Copyright 2023 Fonticons, Inc. --><defs><style>.fa-secondary{opacity:.4}</style></defs><path class="fa-primary" d="M0 320V234.5c0-17 6.7-33.3 18.7-45.3l42.5-42.5c12-12 28.3-18.7 45.3-18.7h299c17 0 33.3 6.7 45.3 18.7l42.5 42.5c12 12 18.7 28.3 18.7 45.3V320H384V288c0-17.7-14.3-32-32-32s-32 14.3-32 32v32H192V288c0-17.7-14.3-32-32-32s-32 14.3-32 32v32H0z"/><path class="fa-secondary" d="M176 88v40H128V88c0-30.9 25.1-56 56-56H328c30.9 0 56 25.1 56 56v40H336V88c0-4.4-3.6-8-8-8H184c-4.4 0-8 3.6-8 8zM0 320H128v32c0 17.7 14.3 32 32 32s32-14.3 32-32V320H320v32c0 17.7 14.3 32 32 32s32-14.3 32-32V320H512v96c0 35.3-28.7 64-64 64H64c-35.3 0-64-28.7-64-64V320z"/></svg>
